src/assets/skills/less.svg

<svg height="100pt" viewBox="0 0 100 100" width="100pt" xmlns="http://www.w3.org/2000/svg"><path d="m0 0h100v100h-100z" fill="#234474"/><path d="m28.516 26.445c-1.318.31-3.603 2.005-4.544 3.372-.906 1.316-.919 1.414-1.007 7.615-.074 5.243-.096 5.641-.344 6.307-.791 2.128-1.748 3.094-3.892 3.935-1.458.571-1.617.772-1.617 2.044 0 1.35.173 1.671 1.08 2.011 1.909.714 3.068 1.582 3.816 2.857.761 1.297.751 1.208.842 7.265.068 4.554.122 5.745.291 6.4.815 3.161 3.456 5.06 7.642 5.491 2.184.225 2.361.071 2.361-2.07 0-1.635-.015-1.667-1.018-2.104-1.25-.544-2.189-1.527-2.567-2.689-.093-.285-.18-2.263-.238-5.41-.134-7.242-.47-8.252-3.4-10.2-1.613-1.073-1.66-1.523-.259-2.468 3.054-2.06 3.521-3.416 3.658-10.606.053-2.791.152-5.13.225-5.348.51-1.511 1.649-2.355 3.442-2.551 1.258-.137 1.302-.2 1.302-1.872 0-1.822-.041-1.885-1.289-2.011-1.279-.127-3.882-.109-4.484.032zm8.795.111-.351.275v15.932c0 17.633-.027 17.005.819 18.448.987 1.685 2.129 2.157 5.225 2.163 4.918.007 5.223-.291 4.279-4.168-.298-1.226-.215-1.153-1.422-1.242-1.07-.078-1.41-.255-1.695-.882-.104-.228-.162-4.283-.208-14.375l-.063-14.056-.446-.887c-.665-1.324-.818-1.386-3.562-1.44-2.125-.041-2.242-.03-2.576.232zm30.549-.009c-.275.223-.303.352-.336 1.558-.045 1.633.057 1.864.968 2.192 2.384.856 2.821 2.185 2.821 8.579 0 6.542.42 7.784 3.294 9.748 1.505 1.028 1.491 1.441-.084 2.503-2.922 1.971-3.21 2.847-3.21 9.775 0 6.103-.438 7.391-2.915 8.574-.946.452-1.029.653-1.029 2.48 0 1.866-.016 1.849 1.692 1.739 4.27-.276 7.226-2.181 8.262-5.325.244-.738.268-1.209.345-6.519l.083-5.723.349-.891c.637-1.624 1.952-2.906 3.613-3.522 1.206-.448 1.305-.591 1.305-1.894 0-1.467.03-1.422-1.36-2.102-1.851-.906-2.813-1.983-3.44-3.851-.158-.47-.215-1.635-.288-5.927-.123-7.169-.56-8.385-3.794-10.562-1.569-1.055-5.376-1.56-6.276-.832zm-11.052 13.485c-3.258.69-6.102 3.063-6.716 5.604-1.076 4.459.908 7.208 6.69 9.268 2.994 1.067 3.656 1.67 3.154 2.872-.584 1.397-3.422 1.349-7.139-.121-1.941-.767-2.109-.693-2.98 1.312-1.124 2.585-.826 3.062 2.625 4.209 7.425 2.469 14.321-.28 14.752-5.877.315-4.099-1.982-6.746-7.189-8.285-3.016-.89-3.851-1.778-2.775-2.951l.45-.491 1.25.004c1.393.003 2.6.276 4.529 1.02.625.241 1.268.439 1.428.439.952 0 2.396-3.371 1.926-4.494-.706-1.691-6.732-3.201-10.005-2.509z" fill="#f2f2f2" fill-rule="evenodd"/></svg>

<?xml version="1.0" encoding="UTF-8" standalone="no"?><!-- Generator: Gravit.io --><svg xmlns="http://www.w3.org/2000/svg" xmlns:xlink="http://www.w3.org/1999/xlink" style="isolation:isolate" viewBox="0 0 100 100" width="100pt" height="100pt"><g><path d=" M 0 0 L 100 0 L 100 100 L 0 100 L 0 0 Z " fill="rgb(35,68,116)"/><path d=" M 28.516 26.445 C 27.198 26.755 24.913 28.45 23.972 29.817 C 23.066 31.133 23.053 31.231 22.965 37.432 C 22.891 42.675 22.869 43.073 22.621 43.739 C 21.83 45.867 20.873 46.833 18.729 47.674 C 17.271 48.245 17.112 48.446 17.112 49.718 C 17.112 51.068 17.285 51.389 18.192 51.729 C 20.101 52.443 21.26 53.311 22.008 54.586 C 22.769 55.883 22.759 55.794 22.85 61.851 C 22.918 66.405 22.972 67.596 23.141 68.251 C 23.956 71.412 26.597 73.311 30.783 73.742 C 32.967 73.967 33.144 73.813 33.144 71.672 C 33.144 70.037 33.129 70.005 32.126 69.568 C 30.876 69.024 29.937 68.041 29.559 66.879 C 29.466 66.594 29.379 64.616 29.321 61.469 C 29.187 54.227 28.851 53.217 25.921 51.269 C 24.308 50.196 24.261 49.746 25.662 48.801 C 28.716 46.741 29.183 45.385 29.32 38.195 C 29.373 35.404 29.472 33.065 29.545 32.847 C 30.055 31.336 31.194 30.492 32.987 30.296 C 34.245 30.159 34.289 30.096 34.289 28.424 C 34.289 26.602 34.248 26.539 33 26.413 C 31.721 26.286 29.118 26.304 28.516 26.445 Z  M 37.311 26.556 L 36.96 26.831 L 36.96 42.763 C 36.96 60.396 36.933 59.768 37.779 61.211 C 38.766 62.896 39.908 63.368 43.004 63.374 C 47.922 63.381 48.227 63.083 47.283 59.206 C 46.985 57.98 47.068 58.053 45.861 57.964 C 44.791 57.886 44.451 57.709 44.166 57.082 C 44.062 56.854 44.004 52.799 43.958 42.707 L 43.895 28.651 L 43.449 27.764 C 42.784 26.44 42.631 26.378 39.887 26.324 C 37.762 26.283 37.645 26.294 37.311 26.556 Z  M 67.86 26.547 C 67.585 26.77 67.557 26.899 67.524 28.105 C 67.479 29.738 67.581 29.969 68.492 30.297 C 70.876 31.153 71.313 32.482 71.313 38.876 C 71.313 45.418 71.733 46.66 74.607 48.624 C 76.112 49.652 76.098 50.065 74.523 51.127 C 71.601 53.098 71.313 53.974 71.313 60.902 C 71.313 67.005 70.875 68.293 68.398 69.476 C 67.452 69.928 67.369 70.129 67.369 71.956 C 67.369 73.822 67.353 73.805 69.061 73.695 C 73.331 73.419 76.287 71.514 77.323 68.37 C 77.567 67.632 77.591 67.161 77.668 61.851 L 77.751 56.128 L 78.1 55.237 C 78.737 53.613 80.052 52.331 81.713 51.715 C 82.919 51.267 83.018 51.124 83.018 49.821 C 83.018 48.354 83.048 48.399 81.658 47.719 C 79.807 46.813 78.845 45.736 78.218 43.868 C 78.06 43.398 78.003 42.233 77.93 37.941 C 77.807 30.772 77.37 29.556 74.136 27.379 C 72.567 26.324 68.76 25.819 67.86 26.547 Z  M 56.808 40.032 C 53.55 40.722 50.706 43.095 50.092 45.636 C 49.016 50.095 51 52.844 56.782 54.904 C 59.776 55.971 60.438 56.574 59.936 57.776 C 59.352 59.173 56.514 59.125 52.797 57.655 C 50.856 56.888 50.688 56.962 49.817 58.967 C 48.693 61.552 48.991 62.029 52.442 63.176 C 59.867 65.645 66.763 62.896 67.194 57.299 C 67.509 53.2 65.212 50.553 60.005 49.014 C 56.989 48.124 56.154 47.236 57.23 46.063 L 57.68 45.572 L 58.93 45.576 C 60.323 45.579 61.53 45.852 63.459 46.596 C 64.084 46.837 64.727 47.035 64.887 47.035 C 65.839 47.035 67.283 43.664 66.813 42.541 C 66.107 40.85 60.081 39.34 56.808 40.032 Z " fill-rule="evenodd" fill="rgb(242,242,242)"/></g></svg>
